X:377
%%etbk:tnset id:106,pos:4,rep:3x,ant:
%%etbk:skill ?
%%etbk:pldat 2013-10-08T16:37,2013-10-04T17:28,2013-08-28T16:51,2013-05-06T18:27
T: Toormore, The
Z: Piano Box Version by Martin Fleischmann
H: Created 2013-02-19 /  Last Modified 2013-02-19
M: 12/8
L: 1/8
R: slide
K: Ador
|: "am"!1!E2!3!A {B}A!2!G!1!A !3!c2d !5!e3 | "G"!2!ddd ded !1!B2!2!d !5!g3 | "am"!1!E2!3!A {B}A!2!G!1!A !3!c2d !5!e2c | "G"!4!d2!3!c !2!A{c}AG "am"A3 A3 :|
|: "am"!2!e{g}ee !1!ded !3!cec !2!BdB | !1!A!2!A!1!A !5!d!4!c!2!A "G"!1!G2!2!E ED!2!E | "am"!1!E2!3!A {B}A!2!G!1!A !3!c2d !5!e2c | "G"!4!d2!3!c !2!A{c}AG "am"A3 A3 :|
